!!!COM: Music21
!!!OTL: march_March-Of-Saint-Timothy--The
!!!OMV: march_March-Of-Saint-Timothy--The
**kern
*clefG2
*k[f#]
*G:
*M4/4
=1
4.b
8cc
4dd
4b
=
4.a
8b
4cc
4a
=
4.g
8a
4b
4g
=
4g
4f#
4e
4d
=
4.e
8f#
4g
4e
=
4d
4g
4b
4dd
=
4.cc
8b
4a
4g
=
4f#
4a
4d
4cc
!!linebreak:original
=||
*M4/4
4.b
8cc
4dd
4b
=
4.a
8b
4cc
4a
=
4.g
8a
4b
4g
=
4g
4f#
4e
4d
=
4.e
8f#
4g
4e
=
4d
4g
4b
4dd
=
8ccL
8bJ
8aL
8gJ
4f#
4a
=
2.g
8ddL
8ddJ
!!linebreak:original
=||
4cc
4dd
4a
4cc
=
4f#
4a
4d
8ddL
8ddJ
=
4b
4dd
4g
4b
=
4d
4g
4B
8ddL
8ddJ
=
4cc
4dd
4a
4cc
=
4f#
4a
4d
8ddL
8ddJ
=
4dd
4d
4e
4f#
=
4g
4a
4b
8ddL
8ddJ
!!linebreak:original
=
4cc
4dd
4a
4cc
=
4f#
4a
4d
8ddL
8ddJ
=
4b
4dd
4g
4b
=
4d
4g
4B
4d
=
4.e
8f#
4g
4e
=
4d
4g
4b
4dd
=
8ccL
8bJ
8aL
8gJ
4f#
4a
=
1g
=||
*-
